X:1
T:Dorchester, CM
T:Dorchester, CM
T:Simon Browne, circa 1720
T:Public Domain Courtesy of the Cyber Hymnal™
C:Simon Browne, circa 1720
Z:Public Domain
Z:Courtesy of the Cyber Hymnal™
%%score ( 1 2 ) ( 3 4 )
L:1/8
Q:1/4=105
M:4/4
K:C
V:1 treble 
V:2 treble 
V:3 bass 
V:4 bass 
V:1
 [EA]2 | [EA]2 [^GB]2 [Ec]2 ([=Gd][Fc]) | [EB]2 [Ee]2 [EA]2 [EA]2 | [Ec]2 [Ee]2 [Fd]2 [DG]2 | %4
 [Ec]6 [Ee]2 | [Ec]2 ([Gd][Fc]) [EB]2 (cB) | [FA]2 ([DB][FA]) E2 [Ec]2 | %7
 [Gd]2 (e/d/c) ([DB][FA]) E2 | [EA]6 |] %9
V:2
 x2 | x8 | x8 | x8 | x8 | x6 E2 | x4 E2 x2 | x2 E2 x3/2 E2 x/ | x6 |] %9
V:3
 A,2 | [A,C]2 [^G,D]2 (E/D/C) ([G,B,] A,) | [E,^G,]2 (A,G,) [A,,A,]2 [A,C]2 | %3
 [E,E]2 [C,C]2 [E,A,]2 [G,B,]2 | [C,C]6 [A,C]2 | (E/D/C) ([^G,B,] A,) [E,=G,]2 E,2 | %6
 (A,/B,/C) (DC) [E,B,]2 [A,E]2 | [^G,D]2 (C/B,/A,) (DC) [E,B,]2 | [A,,A,]6 |] %9
V:4
 A,2 | x4 A,2 x/ A, x/ | x2 E,2 x4 | x8 | x8 | A,2 x/ A, x E,2 x3/2 | F,2 D,2 x4 | x2 A,2 D,2 x2 | %8
 x6 |] %9

